packages/icons/svg/Fill/bookmark.svg

<svg fill="none" height="24" viewBox="0 0 24 24" width="24" xmlns="http://www.w3.org/2000/svg"><path clip-rule="evenodd" d="m6.00002 21c-.17 0-.34-.043-.493-.13-.313-.177-.507-.51-.507-.87v-14.667c0-1.286.987-2.333 2.2-2.333h9.59998c1.213 0 2.2 1.047 2.2 2.333v14.667c0 .355-.189.685-.496.864-.307.18-.686.182-.996.007l-5.672-3.208-5.32098 3.194c-.159.095-.337.143-.515.143" fill="#6b7280" fill-rule="evenodd"/></svg>

<svg width="24" height="24" viewBox="0 0 24 24" fill="none" xmlns="http://www.w3.org/2000/svg">
<g id="Icon/Fill/bookmark">
<path id="Mask" fill-rule="evenodd" clip-rule="evenodd" d="M6 21C5.83 21 5.66 20.957 5.507 20.87C5.194 20.693 5 20.36 5 20V5.333C5 4.047 5.987 3 7.2 3H16.8C18.013 3 19 4.047 19 5.333V20C19 20.355 18.811 20.685 18.504 20.864C18.197 21.044 17.818 21.046 17.508 20.871L11.836 17.663L6.515 20.857C6.356 20.952 6.178 21 6 21Z" fill="#000000"/>
</g>
</svg>
